packages/katcn/src/icons/svg/brain.svg

<svg width="24" height="25" viewBox="0 0 24 25" fill="none" xmlns="http://www.w3.org/2000/svg">
<path d="M23 12.408C23 10.208 21.8 8.20801 20 7.20801C20 7.10801 20 6.90801 20 6.70801C20 4.20801 18 2.20801 15.5 2.20801C14.1 2.20801 12.8 2.90801 12 3.90801C11.2 2.90801 9.9 2.20801 8.5 2.20801C6 2.20801 4 4.20801 4 6.70801C4 6.90801 4 7.00801 4 7.20801C2.2 8.20801 1 10.208 1 12.408C1 14.608 2.2 16.608 4 17.608C4 17.808 4 17.908 4 18.108C4 20.608 6 22.608 8.5 22.608C9.9 22.608 11.2 21.908 12 20.908C12.8 21.908 14.1 22.608 15.5 22.608C18 22.608 20 20.608 20 18.108C20 17.908 20 17.808 20 17.608C21.8 16.508 23 14.608 23 12.408ZM18.5 16.108C18 16.308 17.8 16.808 17.9 17.308C18 17.508 18 17.808 18 18.008C18 19.408 16.9 20.508 15.5 20.508C14.2 20.508 13.1 19.508 13 18.108C13 18.008 13 18.008 12.9 17.908V17.808C12.9 17.708 12.8 17.608 12.8 17.608C12.8 17.608 12.8 17.508 12.7 17.508C12.6 17.408 12.6 17.408 12.5 17.308C12.5 17.308 12.4 17.308 12.4 17.208C12.3 17.208 12.2 17.208 12.2 17.108H12.1H12C11.9 17.108 11.9 17.108 11.8 17.208C11.7 17.208 11.7 17.308 11.6 17.308C11.5 17.308 11.5 17.408 11.4 17.408L11.3 17.508C11.3 17.608 11.2 17.608 11.2 17.708V17.808C11.2 17.908 11.1 17.908 11.1 18.008C11 19.308 9.9 20.408 8.6 20.408C7.2 20.408 6.1 19.308 6.1 17.908C6.1 17.608 6.1 17.408 6.2 17.208C6.4 16.708 6.1 16.208 5.6 16.008C4 15.508 3 14.008 3 12.408C3 10.808 4 9.30801 5.5 8.70801C6 8.50801 6.3 7.90801 6.1 7.40801C6 7.20801 6 7.00801 6 6.70801C6 5.30801 7.1 4.20801 8.5 4.20801C9.9 4.20801 11 5.30801 11 6.70801V14.908C11 15.508 11.4 15.908 12 15.908C12.6 15.908 13 15.508 13 14.908V6.70801C13 5.30801 14.1 4.20801 15.5 4.20801C16.9 4.20801 18 5.30801 18 6.70801C18 7.00801 18 7.20801 17.9 7.40801C17.7 7.90801 18 8.40801 18.5 8.60801C20 9.30801 21 10.708 21 12.408C21 14.008 20 15.508 18.5 16.108Z" fill="black"/>
</svg>

<svg xmlns="http://www.w3.org/2000/svg" fill="none" viewBox="0 0 24 25"><path fill="#000" d="M23 12.408c0-2.2-1.2-4.2-3-5.2v-.5c0-2.5-2-4.5-4.5-4.5-1.4 0-2.7.7-3.5 1.7-.8-1-2.1-1.7-3.5-1.7-2.5 0-4.5 2-4.5 4.5v.5c-1.8 1-3 3-3 5.2s1.2 4.2 3 5.2v.5c0 2.5 2 4.5 4.5 4.5 1.4 0 2.7-.7 3.5-1.7.8 1 2.1 1.7 3.5 1.7 2.5 0 4.5-2 4.5-4.5v-.5c1.8-1.1 3-3 3-5.2m-4.5 3.7c-.5.2-.7.7-.6 1.2.1.2.1.5.1.7 0 1.4-1.1 2.5-2.5 2.5-1.3 0-2.4-1-2.5-2.4 0-.1 0-.1-.1-.2v-.1c0-.1-.1-.2-.1-.2s0-.1-.1-.1l-.2-.2s-.1 0-.1-.1c-.1 0-.2 0-.2-.1H12c-.1 0-.1 0-.2.1-.1 0-.1.1-.2.1s-.1.1-.2.1l-.1.1c0 .1-.1.1-.1.2v.1c0 .1-.1.1-.1.2-.1 1.3-1.2 2.4-2.5 2.4-1.4 0-2.5-1.1-2.5-2.5 0-.3 0-.5.1-.7.2-.5-.1-1-.6-1.2-1.6-.5-2.6-2-2.6-3.6s1-3.1 2.5-3.7c.5-.2.8-.8.6-1.3-.1-.2-.1-.4-.1-.7 0-1.4 1.1-2.5 2.5-2.5s2.5 1.1 2.5 2.5v8.2c0 .6.4 1 1 1s1-.4 1-1v-8.2c0-1.4 1.1-2.5 2.5-2.5s2.5 1.1 2.5 2.5c0 .3 0 .5-.1.7-.2.5.1 1 .6 1.2 1.5.7 2.5 2.1 2.5 3.8 0 1.6-1 3.1-2.5 3.7"/></svg>
